icons/mobile/24/svg/cryptominer-24.svg

<svg width="24" height="24" viewBox="0 0 24 24" fill="none" xmlns="http://www.w3.org/2000/svg">
<path fill-rule="evenodd" clip-rule="evenodd" d="M8.61756 9.96062C7.04804 10.1556 5.48667 10.4664 3.96912 10.9342C3.82212 10.9802 3.6699 11.0007 3.5199 11.0007C3.13194 11.0006 2.75315 10.8528 2.46717 10.5778C2.06917 10.1938 1.91011 9.62164 2.05311 9.08464V9.08269C2.85218 6.08886 5.29205 3.76096 8.2699 3.15495C8.37207 3.13334 8.4763 3.11971 8.57947 3.10027C8.97427 2.60933 9.54423 2.25903 10.2103 2.14714C11.4192 1.94719 12.6532 1.95092 13.8431 2.15691C14.4932 2.26874 15.0488 2.61775 15.434 3.10612C15.5261 3.12372 15.6212 3.13127 15.7142 3.15007C18.701 3.75612 21.1476 6.08494 21.9467 9.08366L21.9486 9.08269C22.0926 9.61969 21.9326 10.1919 21.5336 10.5759C21.1356 10.9567 20.5586 11.0933 20.0306 10.9303C18.5108 10.4614 16.955 10.1439 15.3832 9.94695C15.2688 10.0827 15.1396 10.2055 14.9994 10.3161L14.9808 19.3053C14.9777 20.7912 13.7656 21.9997 12.2797 21.9997H11.723C10.2381 21.9997 9.02506 20.7912 9.02088 19.3063L9.00037 10.3278C8.86076 10.2181 8.73167 10.096 8.61756 9.96062ZM13.2484 10.9264C12.8323 10.974 12.415 10.9997 12.0004 10.9997C11.584 10.9997 11.1662 10.9741 10.7523 10.9264L10.7709 19.3014C10.7731 19.8242 11.2002 20.2497 11.723 20.2497H12.2797C12.8025 20.2497 13.2296 19.8242 13.2308 19.3014L13.2484 10.9264ZM12.0004 3.74968C11.5015 3.74968 10.9953 3.79175 10.4974 3.8737C10.0645 3.9457 9.75044 4.3119 9.75037 4.74284V8.25749C9.75037 8.67949 10.0535 9.04884 10.4545 9.11784C11.4523 9.29077 12.4885 9.29363 13.5033 9.12566C13.9361 9.05352 14.2504 8.6874 14.2504 8.25652V4.74187C14.2503 4.31998 13.9471 3.95059 13.5463 3.88152C13.0384 3.79354 12.5183 3.7497 12.0004 3.74968ZM8.00037 5.0407C6.08137 5.6497 4.52068 7.18035 3.86268 9.13835C5.22168 8.74035 6.60437 8.44663 8.00037 8.25163V5.0407ZM15.9105 4.06023C15.9681 4.27819 16.0004 4.50655 16.0004 4.74187V8.25652C16.0004 8.55736 15.9477 8.84723 15.8539 9.11784C15.9483 8.84674 16.0014 8.55627 16.0014 8.25456V8.25163C17.3973 8.44663 18.7792 8.73845 20.1371 9.13542C19.4791 7.1805 17.9202 5.65079 16.0014 5.03874V4.74089C16.0013 4.50565 15.9689 4.27763 15.9105 4.06023Z" fill="black"/>
</svg>

<!-- This Source Code Form is subject to the terms of the Mozilla Public
   - License, v. 2.0. If a copy of the MPL was not distributed with this
   - file, You can obtain one at http://mozilla.org/MPL/2.0/. -->
<svg xmlns="http://www.w3.org/2000/svg" width="24" height="24" fill="none" viewBox="0 0 24 24">
    <path fill="#000" fill-rule="evenodd" d="M8.618 9.96c-1.57.196-3.131.506-4.649.974a1.519 1.519 0 0 1-1.916-1.85v-.001c.8-2.994 3.239-5.322 6.217-5.928.102-.022.206-.035.31-.055a2.65 2.65 0 0 1 1.63-.953c1.21-.2 2.443-.196 3.633.01.65.112 1.206.46 1.591.95.092.017.187.024.28.043 2.987.606 5.434 2.935 6.233 5.934l.002-.001a1.53 1.53 0 0 1-.415 1.493c-.398.38-.975.517-1.503.354a27 27 0 0 0-4.648-.983 2.6 2.6 0 0 1-.384.37l-.018 8.988A2.705 2.705 0 0 1 12.28 22h-.557a2.707 2.707 0 0 1-2.702-2.694L9 10.328a2.6 2.6 0 0 1-.383-.367m4.63.966Q12.623 11 12 11q-.626-.001-1.248-.074l.019 8.375c.002.523.43.949.952.949h.557c.523 0 .95-.426.95-.949zM12 3.75c-.498 0-1.005.042-1.503.124a.884.884 0 0 0-.747.869v3.514c0 .422.303.792.704.86a9.2 9.2 0 0 0 3.05.009.884.884 0 0 0 .746-.87V4.743a.87.87 0 0 0-.704-.86A9 9 0 0 0 12 3.75M8 5.04c-1.919.61-3.48 2.14-4.137 4.098A29 29 0 0 1 8 8.252zm7.91-.98q.089.328.09.682v3.515l.001-.002v-.003c1.396.195 2.778.486 4.136.883-.658-1.954-2.217-3.484-4.136-4.096V4.74q-.002-.354-.09-.68" clip-rule="evenodd" />
</svg>
